packages/hms_room_kit/lib/src/assets/icons/menu.svg

<svg width="25" height="24" viewBox="0 0 25 24" fill="none" xmlns="http://www.w3.org/2000/svg">
<g id="Icon">
<path id="Vector" fill-rule="evenodd" clip-rule="evenodd" d="M4.5 6C4.5 5.44772 4.89797 5 5.38889 5H19.6111C20.102 5 20.5 5.44772 20.5 6C20.5 6.55228 20.102 7 19.6111 7H5.38889C4.89797 7 4.5 6.55228 4.5 6ZM4.5 12C4.5 11.4477 4.89797 11 5.38889 11H19.6111C20.102 11 20.5 11.4477 20.5 12C20.5 12.5523 20.102 13 19.6111 13H5.38889C4.89797 13 4.5 12.5523 4.5 12ZM5.38889 17C4.89797 17 4.5 17.4477 4.5 18C4.5 18.5523 4.89797 19 5.38889 19H19.6111C20.102 19 20.5 18.5523 20.5 18C20.5 17.4477 20.102 17 19.6111 17H5.38889Z" fill="#EFF0FA"/>
</g>
</svg>

<svg xmlns="http://www.w3.org/2000/svg" width="25" height="24" fill="none" viewBox="0 0 25 24"><path fill="#EFF0FA" fill-rule="evenodd" d="M4.5 6c0-.552.398-1 .889-1H19.61c.491 0 .889.448.889 1s-.398 1-.889 1H5.39c-.492 0-.89-.448-.89-1Zm0 6c0-.552.398-1 .889-1H19.61c.491 0 .889.448.889 1s-.398 1-.889 1H5.39c-.491 0-.889-.448-.889-1Zm.889 5c-.491 0-.889.448-.889 1s.398 1 .889 1H19.61c.491 0 .889-.448.889-1s-.398-1-.889-1H5.39Z" clip-rule="evenodd"/></svg>
